X: 5621
T: Buttered Peas
R: polka
M: 2/4
K: Gmajor
|:Bd d/c/B|ce ed/c/|Bd D/G/B/d/|cA FD|
B/c/d B/c/d/B/|ce e2|Bd A/B/c/A/|1 BG GG/A/:|2 BG- GF||
|:GB dg|g/f/e/f/ ge|d/B/G/B/ d/B/G/B/|cA AB/A/|
GB dg|g/f/e/f/ g2|d/B/G/B/ c/A/F/A/|BG G2:|

